icons/linear-new-medic-health-stethoscope.svg

<svg xmlns="http://www.w3.org/2000/svg" width="32px" height="32px" viewBox="0 0 32 32" version="1.1">
    <title>linear-new-medic-health-stethoscope</title>
    <g id="linear-new-medic-health-stethoscope" stroke-width="1" fill-rule="evenodd">
        <path d="M7,3 C7.55228475,3 8,3.44771525 8,4 C8,4.55228475 7.55228475,5 7,5 L5,5 L5,14.5 C5,18.0118106 7.78499621,20.8731506 11.2668659,20.995897 L11.5,21 C15.0898509,21 18,18.0898509 18,14.5 L18,5 L16,5 C15.4871642,5 15.0644928,4.61395981 15.0067277,4.11662113 L15,4 C15,3.44771525 15.4477153,3 16,3 L19,3 C19.5522847,3 20,3.44771525 20,4 L20,14.5 C20,18.9988904 16.504835,22.6814412 12.0817532,22.9804044 C12.5479295,25.8279688 15.0203122,28 18,28 L18.5,28 C22.0898509,28 25,25.0898509 25,21.5 L25.0002435,15.8740452 C23.2748927,15.4300871 22,13.8639271 22,12 C22,9.790861 23.790861,8 26,8 C28.209139,8 30,9.790861 30,12 C30,13.8635652 28.7256022,15.429479 27.0007613,15.8737865 L27,21.5 C27,26.1944204 23.1944204,30 18.5,30 L18,30 C13.8777833,30 10.4837665,26.8822059 10.0474211,22.8760894 C6.04537032,22.1876004 3,18.6994424 3,14.5 L3,4 C3,3.44771525 3.44771525,3 4,3 L7,3 Z M26,10 C24.8954305,10 24,10.8954305 24,12 C24,13.1045695 24.8954305,14 26,14 C27.1045695,14 28,13.1045695 28,12 C28,10.8954305 27.1045695,10 26,10 Z" id="&#24418;&#29366;" fill-rule="nonzero" />
    </g>
</svg>

<svg xmlns="http://www.w3.org/2000/svg" viewBox="0 0 32 32"><path fill="currentColor" d="M7 3a1 1 0 1 1 0 2H5v9.5a6.5 6.5 0 0 0 6.267 6.496L11.5 21a6.5 6.5 0 0 0 6.5-6.5V5h-2a1 1 0 0 1-.993-.883L15 4a1 1 0 0 1 1-1h3a1 1 0 0 1 1 1v10.5a8.5 8.5 0 0 1-7.918 8.48A5.998 5.998 0 0 0 18 28h.5a6.5 6.5 0 0 0 6.5-6.5v-5.626A4.002 4.002 0 0 1 26 8a4 4 0 0 1 1 7.874V21.5a8.5 8.5 0 0 1-8.5 8.5H18a8.001 8.001 0 0 1-7.953-7.124A8.502 8.502 0 0 1 3 14.5V4a1 1 0 0 1 1-1zm19 7a2 2 0 1 0 0 4 2 2 0 0 0 0-4"/></svg>
